X:1
T:Virginia, or Lord MacDonald's Reel
M:C
L:1/8
Q:"Allegretto"
S:Published, perhaps as single sheet, by George P. Reed,
S:17 Tremont Row, Boston, Ma., 1812
Z:AK/Fiddler's Companion
K:G
B|Od3e d>Bg>B|dBgB aAAB|d^cde dBgB|ABcB ABGG:|
|:B|D>GB>G A>GB>G|D>GB>G A>GA>B|D>GB>G A>GB>G|D>ED>A, B,G,G,G|
D>GB>G A>GB>G|D>GB>G A>GEc|(BAGF) (GFED)|E>FGA BGG:|
|:B|d3e d>Bg>B|d>Bg>B aAAB|d^cde dBgB|ABcB ABGG:|
|:g|d>gb>g a>gb>g|d>gb>g a>ge>g|d>gb>g a>gbg|d>edc BGG g|
d>gbg a>gbg|d>gbg a>gea|.b.a.g.f .g.f.e.d|.e.f.g.a bggbO||

